build/img/svg/balance.svg

<svg width="30" height="30" viewBox="0 0 30 30" fill="none" xmlns="http://www.w3.org/2000/svg">
<g clip-path="url(#clip0)">
<path d="M27.9897 7.50092L24.5088 5.49114L22.4995 2.01076H18.4806L14.9997 0.000984192L11.5188 2.01076H7.49985L5.49007 5.49166L2.00978 7.50092V11.5199L0 15.0008L2.00978 18.4817V22.5006L5.49068 24.5104L7.50046 27.9913H11.5194L14.9998 30.0005L18.4807 27.9908H22.4996L24.5094 24.5099L27.9903 22.5001V18.4811L30.0001 15.0002L27.9903 11.5193V7.50092H27.9897ZM13.6459 21.14C13.3662 21.4197 12.9977 21.5556 12.6309 21.5505C12.264 21.5557 11.8956 21.4197 11.6159 21.14L7.22904 16.7531C6.6795 16.2036 6.6795 15.3121 7.22904 14.7626L8.39038 13.6012C8.93992 13.0517 9.8314 13.0517 10.3809 13.6012L12.6309 15.8512L19.6181 8.8635C20.1676 8.31396 21.0591 8.31396 21.6087 8.8635L22.77 10.0248C23.3195 10.5744 23.3195 11.4659 22.77 12.0154L13.6459 21.14Z" fill="#27AE60"/>
</g>
<defs>
<clipPath id="clip0">
<rect width="30" height="30" fill="white"/>
</clipPath>
</defs>
</svg>

<svg width="30" height="30" fill="none" xmlns="http://www.w3.org/2000/svg"><g clip-path="url(#clip0)"><path d="M27.99 7.5l-3.481-2.009-2.01-3.48h-4.018L15 0l-3.481 2.01h-4.02L5.49 5.49 2.01 7.5v4.019L0 15l2.01 3.482V22.5l3.48 2.01 2.01 3.48h4.02L15 30l3.48-2.01h4.02l2.01-3.481 3.48-2.01V18.48L30 15l-2.01-3.482V7.501zM13.646 21.14c-.28.28-.648.416-1.015.41a1.401 1.401 0 01-1.015-.41l-4.387-4.387a1.408 1.408 0 010-1.99L8.39 13.6c.55-.55 1.441-.55 1.99 0l2.25 2.25 6.988-6.988a1.408 1.408 0 011.99 0l1.162 1.162c.55.55.55 1.44 0 1.99l-9.124 9.125z" fill="#27AE60"/></g><defs><clipPath id="clip0"><path fill="#fff" d="M0 0h30v30H0z"/></clipPath></defs></svg>
